build/img/icons/whatsapp.svg

<svg width="24" height="25" viewBox="0 0 24 25" fill="none" xmlns="http://www.w3.org/2000/svg">
<path d="M17.496 14.8827C17.1952 14.7305 15.7305 14.0157 15.4567 13.9137C15.183 13.8162 14.9842 13.7652 14.7847 14.066C14.5897 14.3592 14.0152 15.0305 13.8397 15.2262C13.6642 15.422 13.4917 15.437 13.1955 15.3043C12.8947 15.152 11.934 14.8392 10.7933 13.8162C9.90225 13.0235 9.309 12.047 9.13275 11.7463C8.95725 11.4493 9.11325 11.2812 9.26175 11.1327C9.39825 10.9963 9.5625 10.7893 9.71475 10.6093C9.8595 10.4292 9.906 10.3085 10.0118 10.1135C10.1093 9.90275 10.059 9.7385 9.98475 9.59C9.9105 9.4415 9.31275 7.96925 9.063 7.38275C8.8245 6.80075 8.57475 6.875 8.391 6.875C8.21925 6.85925 8.01975 6.85925 7.821 6.85925C7.62225 6.85925 7.2975 6.9335 7.02375 7.2185C6.75 7.51925 5.97675 8.23775 5.97675 9.69125C5.97675 11.1485 7.047 12.5585 7.1955 12.7692C7.34775 12.9642 9.30075 15.9642 12.297 17.2535C13.0118 17.5542 13.5667 17.7342 14.0002 17.8827C14.715 18.1092 15.3675 18.0777 15.8827 18.0035C16.4527 17.9097 17.6483 17.2805 17.8988 16.5778C18.153 15.8705 18.153 15.2847 18.0788 15.152C18.0045 15.0155 17.8095 14.9412 17.5087 14.8085L17.496 14.8827ZM12.0623 22.25H12.0465C10.2727 22.25 8.51925 21.7692 6.98775 20.8708L6.6285 20.6562L2.8785 21.6327L3.8865 17.984L3.64425 17.609C2.65385 16.0343 2.12842 14.2118 2.1285 12.3515C2.1285 6.9065 6.58575 2.465 12.0697 2.465C14.7263 2.465 17.2185 3.5 19.0935 5.375C20.0185 6.28895 20.7521 7.37794 21.2518 8.57844C21.7514 9.77895 22.0069 11.0669 22.0035 12.3673C21.996 17.8085 17.5425 22.25 12.066 22.25H12.0623ZM20.5192 3.94925C18.2377 1.74575 15.2378 0.5 12.0465 0.5C5.4645 0.5 0.105 5.83625 0.10125 12.3942C0.10125 14.4882 0.648 16.5312 1.695 18.3395L0 24.5L6.336 22.8478C8.09123 23.7941 10.0532 24.2918 12.0472 24.2967H12.051C18.6368 24.2967 23.9963 18.9605 24 12.398C24 9.2225 22.7618 6.23375 20.5042 3.9875L20.5192 3.94925Z" fill="#17CE3F"/>
</svg>

<svg width="24" height="25" fill="none" xmlns="http://www.w3.org/2000/svg">
    <path d="M17.496 14.883c-.3-.152-1.765-.867-2.04-.97-.273-.097-.472-.148-.671.153-.195.293-.77.964-.945 1.16-.176.196-.348.211-.645.078-.3-.152-1.261-.465-2.402-1.488-.89-.793-1.484-1.769-1.66-2.07-.176-.297-.02-.465.129-.613.136-.137.3-.344.453-.524.145-.18.191-.3.297-.495.097-.211.047-.376-.027-.524-.074-.149-.672-1.62-.922-2.207-.239-.582-.488-.508-.672-.508-.172-.016-.371-.016-.57-.016a1.13 1.13 0 0 0-.797.36c-.274.3-1.047 1.019-1.047 2.472 0 1.457 1.07 2.867 1.218 3.078.153.195 2.106 3.195 5.102 4.484.715.301 1.27.481 1.703.63.715.226 1.367.195 1.883.12.57-.093 1.765-.723 2.016-1.425.254-.707.254-1.293.18-1.426-.075-.136-.27-.21-.57-.343l-.013.074zm-5.434 7.367h-.015c-1.774 0-3.528-.48-5.06-1.38l-.359-.214-3.75.977 1.008-3.649-.242-.375a9.874 9.874 0 0 1-1.516-5.258c0-5.445 4.458-9.886 9.942-9.886a9.866 9.866 0 0 1 7.023 2.91 9.794 9.794 0 0 1 2.91 6.992c-.007 5.441-4.46 9.883-9.937 9.883h-.004zm8.457-18.3C18.238 1.745 15.238.5 12.047.5 5.463.5.104 5.836.1 12.394c0 2.094.547 4.137 1.594 5.946L0 24.5l6.336-1.652a12.098 12.098 0 0 0 5.711 1.449h.004c6.586 0 11.945-5.337 11.949-11.899 0-3.175-1.238-6.164-3.496-8.41l.015-.039z" fill="#17CE3F"/>
</svg>
